T: Dinny O'Brien's
M: 4/4
L: 1/8
K: Gmaj
dB|:DGBG ABcA|defa gfdc|B3d cAFD|GBAF DEFD|GDBD ABcA|defa gfdc|BGBd cAFD|1AGGF G2 dB:|2AGGF G2 (3def|||:g3a gfdf|gdbg gfde|dcde fgaf|fd d2 dcAF|G2 BG ABcA|defa gfdc|B3d cAFA|1AGGF G2 (3def:|2AGGF G2 dB||
